src/assets/halter_icon.svg

<svg width="23" height="23" viewBox="0 0 23 23" fill="none" xmlns="http://www.w3.org/2000/svg">
<path d="M16.5088 0C15.8182 0 15.114 0.273324 14.5929 0.805247C14.2632 1.14842 14.0297 1.57553 13.9166 2.04211C13.7291 2.00253 13.547 1.9556 13.3531 1.9556C12.6625 1.9556 11.9583 2.20039 11.4372 2.73232C10.9364 3.24901 10.6556 3.94644 10.6556 4.67319C10.6556 5.39995 10.9364 6.09738 11.4372 6.61407L12.1972 7.39079L7.68908 11.9922L6.92811 11.2164C6.68134 10.9614 6.38752 10.7589 6.06361 10.6205C5.7397 10.4821 5.39213 10.4107 5.04099 10.4102C4.35034 10.4102 3.64617 10.6836 3.12503 11.2164C2.80611 11.5479 2.57429 11.9561 2.45104 12.4033C2.32779 12.8505 2.3171 13.3222 2.41995 13.7748C1.98717 13.8907 1.57873 14.0877 1.23701 14.4374C0.736289 14.9541 0.455444 15.6515 0.455444 16.3783C0.455444 17.105 0.736289 17.8024 1.23701 18.3191L1.26496 18.3486L2.47675 19.614L1.85643 20.2462L3.15298 21.5696L3.7733 20.9364L5.04099 22.2018C5.54725 22.7132 6.23074 23 6.94298 23C7.65523 23 8.33871 22.7132 8.84497 22.2018C9.1694 21.8658 9.40247 21.4494 9.5212 20.9935C10.3868 21.1849 11.3308 20.9576 12.0007 20.2757C12.5019 19.7589 12.7831 19.0611 12.7831 18.3339C12.7831 17.6067 12.5019 16.9088 12.0007 16.3921L11.2397 15.6163L15.7479 11.0149L16.5079 11.7916C17.0142 12.3032 17.6979 12.5902 18.4104 12.5902C19.1228 12.5902 19.8065 12.3032 20.3128 11.7916C20.9782 11.1078 21.2036 10.1443 21.0161 9.2608C21.4633 9.1411 21.8717 8.90301 22.1999 8.57059C22.7012 8.05382 22.9824 7.356 22.9824 6.62879C22.9824 5.90159 22.7012 5.20377 22.1999 4.687L20.9602 3.39492L21.5805 2.76177L20.284 1.43748L19.6636 2.07064L18.3959 0.805247C18.1491 0.550434 17.8553 0.348073 17.5313 0.20986C17.2074 0.0716459 16.8599 0.000318767 16.5088 0ZM16.5088 1.84056C16.6238 1.83903 16.7379 1.86113 16.8443 1.90556C16.9507 1.94999 17.0473 2.01583 17.1283 2.09916L20.9322 5.98183C21.0161 6.06348 21.0829 6.16165 21.1285 6.2704C21.1741 6.37915 21.1977 6.49623 21.1977 6.61453C21.1977 6.73283 21.1741 6.8499 21.1285 6.95866C21.0829 7.06741 21.0161 7.16558 20.9322 7.24722C20.8492 7.33278 20.7504 7.4007 20.6416 7.44706C20.5327 7.49341 20.4159 7.51728 20.2979 7.51728C20.18 7.51728 20.0632 7.49341 19.9543 7.44706C19.8454 7.4007 19.7466 7.33278 19.6636 7.24722L15.8885 3.39308C15.8048 3.30838 15.7384 3.2076 15.6931 3.09656C15.6477 2.98552 15.6244 2.86642 15.6244 2.74612C15.6244 2.62583 15.6477 2.50672 15.6931 2.39568C15.7384 2.28464 15.8048 2.18386 15.8885 2.09916C15.9696 2.01572 16.0663 1.94981 16.1729 1.90538C16.2795 1.86095 16.3937 1.83891 16.5088 1.84056ZM13.3531 3.76764C13.5785 3.76764 13.7967 3.87531 13.9725 4.05476L19.0163 9.20282C19.1 9.28752 19.1664 9.3883 19.2117 9.49934C19.2571 9.61038 19.2804 9.72949 19.2804 9.84978C19.2804 9.97008 19.2571 10.0892 19.2117 10.2002C19.1664 10.3113 19.1 10.412 19.0163 10.4967C18.6646 10.8556 18.1327 10.828 17.7765 10.4682H17.7477L12.7049 5.32015C12.3532 4.96124 12.3803 4.41828 12.7328 4.05476C12.905 3.88635 13.134 3.76764 13.3531 3.76764ZM13.4658 8.6847L14.4802 9.72094L9.97201 14.3224L8.95677 13.287L13.4658 8.6847ZM5.04099 12.2517C5.2664 12.2517 5.48459 12.3594 5.66041 12.5388H5.68836L10.7321 17.6869C11.0837 18.0458 11.0567 18.5888 10.7041 18.9523C10.3525 19.2928 9.81332 19.3075 9.46439 18.9523L8.84407 18.3191L8.73227 18.2336L5.04099 14.4374L4.42067 13.8042C4.33698 13.7195 4.27055 13.6188 4.22522 13.5077C4.17988 13.3967 4.15654 13.2776 4.15654 13.1573C4.15654 13.037 4.17988 12.9179 4.22522 12.8068C4.27055 12.6958 4.33698 12.595 4.42067 12.5103C4.50166 12.4267 4.59834 12.3606 4.70492 12.316C4.81151 12.2714 4.92581 12.2493 5.04099 12.2508V12.2517ZM3.12503 15.4727C3.35043 15.4727 3.59658 15.5804 3.7724 15.7598L7.54843 19.614C7.63212 19.6987 7.69855 19.7995 7.74388 19.9105C7.78921 20.0215 7.81255 20.1406 7.81255 20.2609C7.81255 20.3812 7.78921 20.5003 7.74388 20.6114C7.69855 20.7224 7.63212 20.8232 7.54843 20.9079C7.19679 21.2668 6.66483 21.2668 6.30868 20.9079L2.5047 17.0252C2.42083 16.9436 2.35405 16.8454 2.30843 16.7367C2.26281 16.6279 2.23929 16.5108 2.23929 16.3925C2.23929 16.2742 2.26281 16.1572 2.30843 16.0484C2.35405 15.9396 2.42083 15.8415 2.5047 15.7598C2.68142 15.5804 2.89962 15.4718 3.12503 15.4718V15.4727Z" fill="white"/>
</svg>

<svg width="23" height="23" fill="none" xmlns="http://www.w3.org/2000/svg"><path d="M16.509 0c-.69 0-1.395.273-1.916.805-.33.343-.563.77-.676 1.237-.188-.04-.37-.086-.564-.086-.69 0-1.395.244-1.916.776a2.79 2.79 0 0 0-.781 1.941c0 .727.28 1.424.781 1.941l.76.777-4.508 4.601-.76-.776a2.655 2.655 0 0 0-.865-.595 2.611 2.611 0 0 0-1.023-.21 2.69 2.69 0 0 0-1.916.805c-.319.332-.55.74-.674 1.187a2.816 2.816 0 0 0-.031 1.372c-.433.116-.841.313-1.183.662a2.79 2.79 0 0 0-.782 1.941c0 .727.281 1.424.782 1.941l.028.03 1.212 1.265-.62.632 1.296 1.324.62-.634 1.268 1.266c.506.511 1.19.798 1.902.798s1.396-.287 1.902-.798a2.73 2.73 0 0 0 .676-1.209 2.653 2.653 0 0 0 2.48-.717 2.79 2.79 0 0 0 .782-1.942 2.79 2.79 0 0 0-.782-1.942l-.761-.776 4.508-4.601.76.777c.506.511 1.19.798 1.902.798.713 0 1.396-.287 1.903-.798.665-.684.89-1.648.703-2.531.447-.12.856-.358 1.184-.69a2.79 2.79 0 0 0 .782-1.942 2.79 2.79 0 0 0-.782-1.942l-1.24-1.292.62-.633-1.296-1.325-.62.634L18.396.805A2.653 2.653 0 0 0 17.53.21 2.61 2.61 0 0 0 16.51 0Zm0 1.84a.841.841 0 0 1 .62.26l3.803 3.882a.874.874 0 0 1 .266.633.89.89 0 0 1-.266.632.892.892 0 0 1-.634.27.877.877 0 0 1-.634-.27l-3.776-3.854a.912.912 0 0 1-.264-.647.926.926 0 0 1 .264-.647.856.856 0 0 1 .62-.258Zm-3.156 1.928c.226 0 .444.107.62.287l5.043 5.148a.912.912 0 0 1 .264.647.926.926 0 0 1-.264.647c-.351.359-.883.331-1.24-.029h-.028L12.705 5.32c-.352-.359-.325-.902.028-1.265.172-.169.401-.287.62-.287Zm.113 4.917L14.48 9.72l-4.508 4.601-1.015-1.035 4.509-4.602ZM5.04 12.252c.225 0 .444.107.62.287h.027l5.044 5.148c.352.359.325.902-.028 1.265-.352.34-.89.355-1.24 0l-.62-.633-.112-.085-3.691-3.797-.62-.633a.912.912 0 0 1-.264-.647.928.928 0 0 1 .264-.647.856.856 0 0 1 .62-.26v.002Zm-1.916 3.22c.225 0 .472.108.647.288l3.776 3.854a.913.913 0 0 1 .265.647.928.928 0 0 1-.265.647.848.848 0 0 1-1.24 0l-3.803-3.883a.875.875 0 0 1-.266-.633.89.89 0 0 1 .266-.632c.176-.18.395-.288.62-.288Z" fill="#fff"/></svg>
